X: 4
T: Minion, The
T: Steamboat Quickstep, The
M: 6/8
L: 1/8
R: jig
K: Gmaj
|: g2 d B2 G | def g3 | gfe dcB | ABc BAG |
g2 d B2 G | def g3 | gfe agd | AB^c d3 :|
B2 d dBd | dBd B2 G | c2 e ece | ece c2 A |
B2 d dBd | dBd B2 G | gfe dcB | AGF G3 :|
